static/svgs/favorite/favorite_type-gray.svg

<?xml version="1.0" encoding="UTF-8" standalone="no"?>
<!-- Generator: Adobe Illustrator 19.1.0, SVG Export Plug-In . SVG Version: 6.00 Build 0)  -->

<svg
   xmlns:osb="http://www.openswatchbook.org/uri/2009/osb"
   xmlns:dc="http://purl.org/dc/elements/1.1/"
   xmlns:cc="http://creativecommons.org/ns#"
   xmlns:rdf="http://www.w3.org/1999/02/22-rdf-syntax-ns#"
   xmlns:svg="http://www.w3.org/2000/svg"
   xmlns="http://www.w3.org/2000/svg"
   xmlns:sodipodi="http://sodipodi.sourceforge.net/DTD/sodipodi-0.dtd"
   xmlns:inkscape="http://www.inkscape.org/namespaces/inkscape"
   version="1.1"
   id="Layer_1"
   x="0px"
   y="0px"
   width="22px"
   height="22px"
   viewBox="0 0 22 22"
   style="enable-background:new 0 0 22 22;"
   xml:space="preserve"
   inkscape:version="0.91 r13725"
   sodipodi:docname="favorite_type-gray.svg"><metadata
     id="metadata11"><rdf:RDF><cc:Work
         rdf:about=""><dc:format>image/svg+xml</dc:format><dc:type
           rdf:resource="http://purl.org/dc/dcmitype/StillImage" /><dc:title></dc:title></cc:Work></rdf:RDF></metadata><defs
     id="defs9"><linearGradient
       id="linearGradient5601"
       osb:paint="solid"><stop
         style="stop-color:#000000;stop-opacity:1;"
         offset="0"
         id="stop5603" /></linearGradient></defs><sodipodi:namedview
     pagecolor="#ffffff"
     bordercolor="#666666"
     borderopacity="1"
     objecttolerance="10"
     gridtolerance="10"
     guidetolerance="10"
     inkscape:pageopacity="0"
     inkscape:pageshadow="2"
     inkscape:window-width="994"
     inkscape:window-height="616"
     id="namedview7"
     showgrid="false"
     inkscape:zoom="16.169462"
     inkscape:cx="0.46425648"
     inkscape:cy="9.8138558"
     inkscape:window-x="0"
     inkscape:window-y="23"
     inkscape:window-maximized="0"
     inkscape:current-layer="Layer_1" /><path
     sodipodi:type="star"
     id="path3347"
     sodipodi:sides="5"
     sodipodi:cx="10.946561"
     sodipodi:cy="11.053439"
     sodipodi:r1="9.080267"
     sodipodi:r2="4.5401335"
     sodipodi:arg1="0.94500454"
     sodipodi:arg2="1.5733231"
     inkscape:flatsided="false"
     inkscape:rounded="0"
     inkscape:randomized="0"
     d="M 16.265229,18.412992 10.935089,15.593558 5.5907692,18.38602 6.6251061,12.445503 2.3178313,8.2256707 8.2872268,7.3736627 10.969504,1.9732012 13.624457,7.3871487 19.58947,8.2693118 15.260926,12.467323 Z"
     inkscape:transform-center-x="-0.0070899211"
     inkscape:transform-center-y="-0.86034262"
     style="stroke:#6b6b6b;stroke-opacity:1;stroke-linecap:butt;stroke-linejoin:round;stroke-width:1.6;stroke-miterlimit:4;stroke-dasharray:none;fill:none" /></svg>

<svg xmlns="http://www.w3.org/2000/svg" width="22" height="22" viewBox="0 0 22 22">
  <path d="M16.265 18.413l-5.33-2.82-5.344 2.793 1.034-5.94-4.307-4.22 5.97-.852 2.682-5.4 2.654 5.413 5.965.882-4.328 4.198z" stroke="#6b6b6b" stroke-linejoin="round" stroke-width="1.6" fill="none"/>
</svg>
